X: 15740
T: Gone Fishing
R: reel
M: 4/4
K: Bminor
|:"Bm"B,2FE DEFA|BAFE DECD|B,F (3FFF EFcd-|"Em"dc^AF EFDC|
"Bm"B,2(3FFF EFC2|DCDF EB,C2|"G"zFEC DCDF|1 "F#"E/F/E/z/^A,B, CDEF:|2 E/F/E/z/^A,B, CDEF-||
|:"Bm"~F2EF GFEG|~F2EF DEC2|zFEF GFEF|"F#"dBFD (3B,CD C2|
"Bm"~F2EF GEF2|zDC2 D2E2|"E"FB, (3B,B,B, FEDC-|"F#"CDEF D/E/D/z/ B,2:|

